SVG/th-list.svg

<?xml version="1.0" encoding="utf-8"?>
<!-- Generated by IcoMoon.io -->
<!DOCTYPE svg PUBLIC "-//W3C//DTD SVG 1.1//EN" "http://www.w3.org/Graphics/SVG/1.1/DTD/svg11.dtd">
<svg version="1.1" xmlns="http://www.w3.org/2000/svg" xmlns:xlink="http://www.w3.org/1999/xlink" width="14" height="14" viewBox="0 0 14 14">
<path fill="#444444" d="M4 9.75v1.5q0 0.312-0.219 0.531t-0.531 0.219h-2.5q-0.312 0-0.531-0.219t-0.219-0.531v-1.5q0-0.312 0.219-0.531t0.531-0.219h2.5q0.312 0 0.531 0.219t0.219 0.531zM4 5.75v1.5q0 0.312-0.219 0.531t-0.531 0.219h-2.5q-0.312 0-0.531-0.219t-0.219-0.531v-1.5q0-0.312 0.219-0.531t0.531-0.219h2.5q0.312 0 0.531 0.219t0.219 0.531zM14 9.75v1.5q0 0.312-0.219 0.531t-0.531 0.219h-7.5q-0.312 0-0.531-0.219t-0.219-0.531v-1.5q0-0.312 0.219-0.531t0.531-0.219h7.5q0.312 0 0.531 0.219t0.219 0.531zM4 1.75v1.5q0 0.312-0.219 0.531t-0.531 0.219h-2.5q-0.312 0-0.531-0.219t-0.219-0.531v-1.5q0-0.312 0.219-0.531t0.531-0.219h2.5q0.312 0 0.531 0.219t0.219 0.531zM14 5.75v1.5q0 0.312-0.219 0.531t-0.531 0.219h-7.5q-0.312 0-0.531-0.219t-0.219-0.531v-1.5q0-0.312 0.219-0.531t0.531-0.219h7.5q0.312 0 0.531 0.219t0.219 0.531zM14 1.75v1.5q0 0.312-0.219 0.531t-0.531 0.219h-7.5q-0.312 0-0.531-0.219t-0.219-0.531v-1.5q0-0.312 0.219-0.531t0.531-0.219h7.5q0.312 0 0.531 0.219t0.219 0.531z"></path>
</svg>

<svg xmlns="http://www.w3.org/2000/svg" viewBox="0 0 14 14"><path d="M4 9.75v1.5q0 .312-.22.53t-.53.22H.75q-.312 0-.53-.22T0 11.25v-1.5q0-.312.22-.53T.75 9h2.5q.312 0 .53.22t.22.53zm0-4v1.5q0 .312-.22.53T3.25 8H.75q-.312 0-.53-.22T0 7.25v-1.5q0-.312.22-.53T.75 5h2.5q.312 0 .53.22t.22.53zm10 4v1.5q0 .312-.22.53t-.53.22h-7.5q-.312 0-.53-.22T5 11.25v-1.5q0-.312.22-.53T5.75 9h7.5q.312 0 .53.22t.22.53zm-10-8v1.5q0 .312-.22.53T3.25 4H.75q-.312 0-.53-.22T0 3.25v-1.5q0-.312.22-.53T.75 1h2.5q.312 0 .53.22t.22.53zm10 4v1.5q0 .312-.22.53t-.53.22h-7.5q-.312 0-.53-.22T5 7.25v-1.5q0-.312.22-.53T5.75 5h7.5q.312 0 .53.22t.22.53zm0-4v1.5q0 .312-.22.53t-.53.22h-7.5q-.312 0-.53-.22T5 3.25v-1.5q0-.312.22-.53T5.75 1h7.5q.312 0 .53.22t.22.53z" /></svg>
